X:335
T: VERGISS MEIN NICHT O THEURE
N: B0394
O: Europa, Mitteleuropa, Deutschland
R: Liebes - Lied, Liebes - Lust
M: 4/4
L: 1/16
K: C
E2E2F2 | G6G2G2e2d2c2 | c2B2B4z2
B2B2c2 | d6B2G6F2 | E8z2
G2G2G2 | c6c2B2c2B2c2 | c4A4-AcBcdcBA | A2G2G4z6
G2 | G12A2B2 | c8z6G2 | G12F2D2 | C8z2

@@@ Tune index: 2138
